X: 1
T: Pr\"astpolska
S: from Peter "Puma" Hedlund at ANA St\"amma 1999
Z: from a transcription by Matt Fichtenbaum
M: 3/4
L: 1/8
K: G
D/ \
|: (D>G) G2 D>G | (G>B) B2 G>B | (B>d) (d>c) B>d | ((3dBd) (g>e) c>e |
| ((3ece) (g>e) c>e | ((3ece) (g>e) c>e | (e>d) (B>d) c>A |1,3 (A>G) G2- G>D :|2 A>G G4 ||
|: A2 (c>{dc}A) F>A | ((3BAB) (d>B) G>B | A2 (c>{dc}A) F>A | G2 ((3BGB) d>d |
| ((3dBd) (g>e) c>e | ((3ece) (g>e) c>e | (e>d) (B>d) c>A | A>G G4 :|
